X: 21507
T: Kid On The Mountain, The
R: slip jig
M: 9/8
K: Eminor
|:E3 FEF G2 F|E2 E BcA BGE|E^DE F^EF G2 A|BAG F/G/AG FED:|
|:B2 B AF/G/A G2 D|G2 B dge dBA|BG/A/B AFA G2 A|BAG FAG F2 D:|
|:g*fg eBe e2 f|g2 g ee/f/g afd|gag eB/^c/d e2 g/a/|bag f/g/ag f2 d:|
|:eBB e2f g>fg|e2 B efg a>fd|eBB e2f g2 a|b>ag fag fed:|
|:edB d2 A G3|G2 B dge dB/c/d|e2 B dBA G2 A|BB/A/G F>AG FED:|
|:B,EE EcA B2 ^A|B,EE E2 F/G/ AFD|B,2 E EE/F/G A2 G|B2 G A2 G F>GA:|

